X:1
T:All Hail to the Prince of Life
T:Isaac Hickman Meredith
T:All Hail to the Prince of Life
T:Public Domain
T:Public Domain
T:Public Domain
C:Isaac Hickman Meredith
Z:Public Domain
%%score ( 1 2 ) ( 3 4 )
L:1/8
M:4/4
K:Bb
V:1 treble 
V:2 treble 
V:3 bass 
V:4 bass 
V:1
 F2 | [Fd]2 [Ec]>[DB] [Ec]2 [Fd]2 | (B4 F2) F2 | [EG]2 [FA]>[GB] [FA]2 [EG]2 | [DF]6 [DF]2 | %5
w: 1.~All|to the Prince of Life,|All * hail|Lord di- vine! For o-|ver the|
w: 2.~Go|ward ye sons of men|And * wel-|glo- rious King! Go meet|Him with|
w: 3.~Then|with your hearts of love|And * come|songs of praise, For Christ|Who hath|
 [EF]2 [EA]>[EG] F2 [Fe]2 | (d4 B2) [FA]2 | [=EG]2 [EG]>[EG] [FA]2 [_FB]2 | %8
w: whole glad earth His glo-|ous * light|shine! He comes from the|
w: songs of joy That o-|His * path|ring! He brings from the|
w: ris’n in- deed Your an-|of * vic-|raise! For ne- ver in|
 [Ec]6"^Boys’ Voices" (F_F) | E2 F>A d2 c2 | (B4 F2)"^Girls’ Voices" (=F_F) | E2 F>A d2 c2 | %12
w: tomb of *|night, The sha- dow of|as * a *|comes, His ban- ner of|
w: grave of *|death The bless- ing of|Him * shall *|part In joys that shall|
w: ag- es *|past And ne- ver in|tor * and *|rise Like Him Who the|
 B6"^Full Chorus" F2 | [FB]2 [FB]>[FB] [Fc]2 [Fc]2 | ([Fd]4 [Ee]2) [B=e]2 | %15
w: |||
w: to the|Life! Ho- san- na to|Him * we|
w: |||
 [Bf]2 [Bd]>[FB] [Fd]2 [Ec]2 | [DB]6 ||"^Refrain" F2 | c2"^Boys’ Voices" =B>c d2 c2 | %19
w: ||||
w: sing— He comes as a|might-|y|tor, He comes as a|
w: ||||
 (B4 F2)"^Chorus, Girls’ Voices" [Bd]2 | [ce]2 [=Bd]>[ce] [df]2 [ce]2 | [Bd]6"^Full Chorus" F2 | %22
w: |||
w: quering * King!|||
w: |||
 [FB]2 [FB]>[FB] [Fc]2 [Fc]2 | [Fd]4 [Ee]2 [B=e]2 | [Bf]2 [Bd]>[FB] [Fd]2 [Ec]2 | [DB]6 |] %26
w: ||||
w: ||||
w: ||||
V:2
 F2 | x8 | D6 F2 | x8 | x8 | x4 F2 x2 | F6 x2 | x8 | x8 | E2 F>A d2 c2 | B4 _F2 x2 | E2 F>A d2 c2 | %12
w: hail||to the|||ri-|shall|||death laid by, He comes|Con- queror|light on high. * *|
w: for-||come the|||ver|shall|||life and peace, Who seeks|find a|ne- ver cease. All hail|
w: come||with your|||thems|t’ry|||com- ing years Shall Vic-|Mon- arch|world re- veres. * *|
 B6 F2 | x8 | x8 | x8 | x6 || F2 | E8 | D6 x2 | x8 | x6 F2 | x8 | x8 | x8 | x6 |] %26
w: ||||||||||||||
w: Prince of|||||Vic-|con-||||||||
w: ||||||||||||||
V:3
 [F,A,]2 | [B,,B,]2 [B,,F,]>[B,,F,] [F,A,]2 [F,A,]2 | (F,4 B,2) [D,B,]2 | %3
 [E,B,]2 [E,B,]>[E,B,] [E,E]2 [E,B,]2 | [B,,B,]6 [B,,B,]2 | [F,A,]2 [F,C]>[F,B,] [F,A,]2 [F,C]2 | %6
 (B,,4 D,2) [D,B,]2 | [C,B,]2 [C,B,]>[C,B,] [C,A,]2 [C,G,]2 | [F,A,]6 z2 | %9
 F,,2 [F,A,CE]2 A,,2 [F,A,CE]2 | (B,,2 [F,B,D]2 [F,B,D]2) z2 | F,,2 [F,A,CE]2 A,,2 [F,A,CE]2 | %12
 (B,,2 [F,B,D]2 [F,B,D]2) (F,E,) | [D,B,]2 [D,B,]>[D,B,] [F,A,]2 [F,A,]2 | %14
 (B,2 _A,2 [G,B,]2) [_G,^C]2 | [F,D]2 [F,F]>[F,D] [F,B,]2 [F,A,]2 | [B,,B,]6 || z2 | %18
 F,,2 [F,A,]2 C,2 [F,A,]2 | (B,,2 [F,B,]2 [F,B,]2) [F,B,D]2 | F,,2 [F,A,CE]2 A,,2 [F,A,E]2 | %21
 (B,,2 [F,B,D]2 [F,B,D]2) (F,E,) | [D,B,]2 [D,B,]>[D,B,] [F,A,]2 [F,A,]2 | %23
 (B,2 _A,2) [G,B,]2 [_G,^C]2 | [F,D]2 [F,F]>[F,D] [F,B,]2 [F,A,]2 | [B,,B,]6 |] %26
V:4
 x2 | x8 | B,,6 x2 | x8 | x8 | x8 | B,6 x2 | x8 | x8 | F,,2 A,,2 x4 | B,,2 x6 | F,,2 A,,2 x4 | %12
 B,,2 x2 A,2 x2 | x8 | B,4- x4 | x8 | x6 || x2 | F,,2 C,2 x4 | B,,2 x6 | F,,2 A,,2 x4 | %21
 B,,2 x2 A,2 x2 | x8 | B,4 x4 | x8 | x6 |] %26

